X:13
T:Farral O'Gara
R:reel
S:Martin Mulvihill collection
M:4/4
L:1/8
K:D maj
|: A,D (3DDD A,DFA | BFAF EFAc | (3dcB (3cBA BFAF | (3GFE (3FED EB,DA, |
| A,D (3DDD A,DFA | BFAF EFAc | (3dcB (3cBA BdAF | GFEG FD D2 :|
|: fd (3dcd fdgd | fdgf edBc | (3dcB (3cBA Bcde | fdgd e^deg |
|1 fd (3dcd fdgd | fdgf edBc | (3dcB (3cBA (3Bcd AF | GFEG FD D2 :|
|2 fagf edBc | dfed BAFA | A,D (3DDD A,DFA | BFAF D2 z2 |

